build/flags/Togo.svg

<svg xmlns="http://www.w3.org/2000/svg" fill="none" viewBox="0 0 28 28" focusable="false"><defs><filter id="Togo_svg__a"><feColorMatrix values="0 0 0 0 1 0 0 0 0 1 0 0 0 0 1 0 0 0 1 0"/></filter></defs><mask id="Togo_svg__b" width="28" height="20" x="0" y="4" maskUnits="userSpaceOnUse"><g filter="url(#Togo_svg__a)"><rect width="28" height="20" y="4" fill="#FFF" rx="3"/><rect width="28" height="20" y="4" stroke="#969696" stroke-opacity="0" stroke-width="0" rx="3"/></g></mask><path fill="none" d="M0 0H28V28H0z"/><rect width="28" height="20" y="4" fill="#FFF" rx="3"/><rect width="28" height="20" y="4" rx="3"/><g mask="url(#Togo_svg__b)"><path fill="#FFD44D" d="M0 4H28V24H0z"/><path d="M0 4H28V24H0z"/><path fill="#159A74" fill-rule="evenodd" d="M28 4L28 8L12 8L12 4L28 4ZM28 12L28 16L12 16L12 12L28 12ZM28 24L28 20L0 20L0 24L28 24Z"/><path d="M28 4L28 8L12 8L12 4L28 4ZM28 12L28 16L12 16L12 12L28 12ZM28 24L28 20L0 20L0 24L28 24Z"/><path fill="#ED1F45" d="M0 4H12V16H0z"/><path d="M0 4H12V16H0z"/><path fill="#FFF" fill-rule="evenodd" d="M6 11.56L3.64886 13.2361L4.51635 10.4821L2.19577 8.76393L5.08306 8.73793L6 6L6.91694 8.73793L9.80423 8.76393L7.48365 10.4821L8.35114 13.2361L6 11.56Z"/><path d="M3.64886 13.2361L4.51635 10.4821L2.19577 8.76393L5.08306 8.73793L6 6L6.91694 8.73793L9.80423 8.76393L7.48365 10.4821L8.35114 13.2361L6 11.56L3.64886 13.2361Z"/></g></svg>

<svg xmlns="http://www.w3.org/2000/svg" fill="none" viewBox="0 0 28 28" focusable="false"><path fill="none" d="M0 0h28v28H0z"/><rect width="28" height="20" y="4" fill="#FFF" rx="3"/><rect width="28" height="20" y="4" rx="3"/><mask id="Togo_svg__a" width="28" height="20" x="0" y="4" mask-type="alpha" maskUnits="userSpaceOnUse"><rect width="28" height="20" y="4" fill="#FFF" rx="3"/><rect width="28" height="20" y="4" stroke="#979797" stroke-opacity="0" stroke-width="0" rx="3"/></mask><g mask="url(#Togo_svg__a)"><path fill="#FFD44D" d="M0 4h28v20H0z"/><path d="M0 4h28v20H0z"/></g><g mask="url(#Togo_svg__a)"><mask id="Togo_svg__b" fill="#fff"><path fill-rule="evenodd" d="M12 4h16v4H12zm0 8h16v4H12zm16 8H0v4h28z" clip-rule="evenodd"/></mask><path fill="#159A74" fill-rule="evenodd" d="M12 4h16v4H12zm0 8h16v4H12zm16 8H0v4h28z" clip-rule="evenodd" mask="url(#Togo_svg__b)"/></g><g mask="url(#Togo_svg__a)"><path fill="#ED1F45" d="M0 4h12v12H0z"/><path d="M0 4h12v12H0z"/></g><g mask="url(#Togo_svg__a)"><path fill="#FFF" fill-rule="evenodd" d="m6 11.56-2.36 1.67.87-2.75-2.32-1.72 2.89-.03L6 6l.91 2.73 2.89.03-2.32 1.72.87 2.75z"/><path d="m3.64 13.23.87-2.75-2.32-1.72 2.89-.03L6 6l.91 2.73 2.89.03-2.32 1.72.87 2.75L6 11.56z"/></g></svg>
